X:1
T:91tresVoces
T:
I:linebreak !
L:1/4
K:Bbmaj
V:1 clef=treble
d4 |c4 |B4|d4|e4|g4|f4|e4|d4|
V:2 clef=treble
z2 F2- |F2 E2- |E2 G2-|G2 F2-|F2 E2-|E2 c2-|c2B2-|B2 A2|B4|
V:3 clef=bass
B,,4 |C,4 |E,4|D,4|G,4|E,4|D,4|C,4|B,,4|
W:Mientras los ejercicios previos pertenecen a lo que s e puede llamar 
W:contrapunto elemental, la combinaciĨn de las diferentes especies lleva 
W: el estudio del contrapunto puro a su estadio mġs avanzado.
W:Dos especies cualesquiera pueden combinarse con el cantus firmus.
W:De este modo surgen ahorġ muchas posibilidades de m ovimi ento y,
W:nuevos usos de la disonancia a partir de la combinaciĨn de lu especies